assets/icons/ffg.svg

<?xml version="1.0" encoding="UTF-8"?>
<svg xmlns="http://www.w3.org/2000/svg" xmlns:xlink="http://www.w3.org/1999/xlink" width="1024px" height="1024px" viewBox="0 0 1024 1024" version="1.1">
<g id="surface1">
<path style=" stroke:none;fill-rule:nonzero;fill:rgb(0%,0%,0%);fill-opacity:1;" d="M 512 119.800781 L 119.800781 512 L 512 904.199219 L 904.199219 512 Z M 217.199219 511.800781 C 220.601562 508.199219 238.199219 490.199219 386.800781 340.398438 C 459.601562 267 538.398438 263.398438 597.398438 307.601562 C 640.601562 340 706.398438 411.199219 706.601562 411.398438 C 707.800781 412.800781 708.398438 416.398438 707.601562 417.398438 C 687.800781 438.199219 667.800781 458.800781 648.800781 478.398438 C 588.601562 421.601562 577.601562 411.199219 563.601562 401.199219 C 532.398438 378.800781 490.800781 383.398438 463.398438 410.199219 C 459.601562 414 460.199219 416.199219 463.601562 419.601562 C 468.800781 424.800781 513 469.398438 525.199219 482.398438 C 504.199219 502.800781 483.601562 522.800781 462.398438 543.398438 C 441.199219 521.398438 419.398438 498.601562 398.199219 476.398438 C 360.601562 513.398438 325 548.601562 289.398438 583.601562 C 265.398438 559.398438 241.398438 535.601562 217.199219 511.800781 Z M 630 690.199219 C 567.601562 752.398438 492.800781 757.199219 442 726.199219 C 403.199219 702.398438 372.800781 669.800781 313.800781 608.800781 C 335 587 355.601562 565.800781 376 545 C 434 601 441.199219 608.199219 454.601562 619 C 487 645 529.398438 643 558.800781 615.800781 C 565.199219 609.800781 565.199219 609.398438 559 603 C 540.398438 584.199219 521.800781 565.398438 503.199219 546.398438 C 500.800781 544 497.800781 542 501.800781 538.199219 C 520.800781 519.398438 539.601562 500.398438 558.398438 481.398438 C 558.800781 481 559.601562 480.800781 561.800781 479.601562 C 583.601562 502.199219 605.601562 525.199219 627.199219 547.800781 C 664.199219 511.398438 699.601562 476.199219 734.800781 441.601562 C 758.800781 465.199219 782.398438 488.398438 806.601562 512 C 771.199219 548.601562 663.199219 657.199219 630 690.199219 Z M 512 62 L 62 512 L 512 962 L 962 512 Z M 90.199219 512 L 512 90.199219 L 933.800781 512 L 512 933.800781 Z M 90.199219 512 "/>
</g>
</svg>

<svg xmlns="http://www.w3.org/2000/svg" width="1024" height="1024"><path d="M512 119.8 119.8 512 512 904.2 904.2 512Zm-294.8 392c3.402-3.6 21-21.6 169.6-171.402 72.802-73.398 151.598-77 210.598-32.796 43.204 32.398 109 103.597 109.204 103.796 1.199 1.403 1.796 5 1 6-19.801 20.801-39.801 41.403-58.801 61-60.2-56.796-71.2-67.199-85.2-77.199-31.203-22.398-72.8-17.8-100.203 9-3.796 3.801-3.199 6 .204 9.403 5.199 5.199 49.398 49.796 61.597 62.796-21 20.403-41.597 40.403-62.8 61-21.2-22-43-44.796-64.2-67-37.597 37-73.199 72.204-108.8 107.204-24-24.204-48-48-72.2-71.801M630 690.2c-62.398 62.198-137.2 67-188 36-38.8-23.802-69.2-56.4-128.2-117.4 21.2-21.8 41.802-43 62.2-63.8 58 56 65.2 63.2 78.602 74 32.398 26 74.796 24 104.199-3.2 6.398-6 6.398-6.402.199-12.8-18.602-18.8-37.2-37.602-55.8-56.602-2.4-2.398-5.4-4.398-1.4-8.199 19-18.8 37.802-37.8 56.598-56.8.403-.399 1.204-.598 3.403-1.797 21.8 22.597 43.8 45.597 65.398 68.199 37-36.403 72.403-71.602 107.602-106.2 24 23.598 47.597 46.797 71.8 70.399C771.2 548.602 663.2 657.2 630 690.2M512 62 62 512l450 450 450-450ZM90.2 512 512 90.2 933.8 512 512 933.8Zm0 0" style="stroke:none;fill-rule:nonzero;fill:#000;fill-opacity:1"/></svg>
